icons/source/generic/news.svg

<?xml version="1.0" encoding="utf-8"?>
<!-- Generated by IcoMoon.io -->
<!DOCTYPE svg PUBLIC "-//W3C//DTD SVG 1.1//EN" "http://www.w3.org/Graphics/SVG/1.1/DTD/svg11.dtd">
<svg version="1.1" xmlns="http://www.w3.org/2000/svg" xmlns:xlink="http://www.w3.org/1999/xlink" width="32" height="32" viewBox="0 0 32 32">
<path d="M16 1.132c-8.284 0-15 6.716-15 15s6.716 15 15 15 15-6.716 15-15-6.716-15-15-15zM24.487 21.132c0.268-1.264 0.437-2.605 0.491-4h3.983c-0.104 1.381-0.426 2.722-0.959 4h-3.515zM7.513 11.132c-0.268 1.264-0.437 2.605-0.491 4h-3.984c0.104-1.381 0.426-2.722 0.959-4h3.516zM22.439 11.132c0.3 1.28 0.48 2.62 0.539 4h-5.978v-4h5.439zM17 9.132v-5.854c0.456 0.133 0.908 0.354 1.351 0.668 0.831 0.586 1.625 1.487 2.299 2.608 0.465 0.775 0.866 1.638 1.202 2.578h-4.852zM11.351 6.554c0.674-1.121 1.468-2.022 2.299-2.609 0.442-0.313 0.894-0.535 1.35-0.668v5.855h-4.852c0.336-0.939 0.738-1.803 1.203-2.578zM15 11.132v4h-5.979c0.059-1.38 0.239-2.72 0.539-4h5.44zM3.997 21.132c-0.533-1.278-0.854-2.619-0.959-4h3.983c0.055 1.395 0.224 2.736 0.491 4h-3.515zM9.021 17.132h5.979v4h-5.439c-0.3-1.28-0.481-2.62-0.54-4zM15 23.132v5.854c-0.456-0.133-0.908-0.354-1.351-0.668-0.831-0.586-1.625-1.487-2.299-2.608-0.465-0.775-0.866-1.638-1.202-2.578h4.852zM20.649 25.71c-0.674 1.121-1.468 2.022-2.299 2.609-0.442 0.312-0.895 0.534-1.351 0.668v-5.855h4.852c-0.335 0.939-0.737 1.802-1.202 2.578zM17 21.132v-4h5.979c-0.059 1.38-0.239 2.72-0.539 4h-5.44zM24.98 15.132c-0.056-1.395-0.225-2.736-0.492-4h3.516c0.533 1.278 0.855 2.619 0.959 4h-3.983zM26.958 9.132h-2.997c-0.582-1.836-1.387-3.447-2.354-4.732 1.328 0.637 2.532 1.488 3.585 2.54 0.672 0.671 1.262 1.404 1.766 2.192zM6.808 6.94c1.053-1.052 2.257-1.903 3.585-2.54-0.967 1.285-1.771 2.896-2.354 4.732h-2.997c0.504-0.788 1.094-1.521 1.766-2.192zM5.042 23.132h2.997c0.583 1.836 1.387 3.447 2.354 4.732-1.328-0.637-2.532-1.488-3.585-2.54-0.672-0.671-1.262-1.404-1.766-2.192zM25.192 25.324c-1.053 1.052-2.257 1.903-3.585 2.54 0.967-1.285 1.771-2.896 2.354-4.732h2.997c-0.504 0.788-1.094 1.521-1.766 2.192z"></path>
</svg>

<svg xmlns="http://www.w3.org/2000/svg" width="32" height="32" viewBox="0 0 32 32"><path d="M16 1.132c-8.284 0-15 6.716-15 15s6.716 15 15 15 15-6.716 15-15-6.716-15-15-15zm8.487 20a23.74 23.74 0 0 0 .491-4h3.983a12.866 12.866 0 0 1-.959 4h-3.515zm-16.974-10a23.74 23.74 0 0 0-.491 4H3.038c.104-1.381.426-2.722.959-4h3.516zm14.926 0c.3 1.28.48 2.62.539 4H17v-4h5.439zm-5.439-2V3.278c.456.133.908.354 1.351.668.831.586 1.625 1.487 2.299 2.608.465.775.866 1.638 1.202 2.578H17zm-5.649-2.578c.674-1.121 1.468-2.022 2.299-2.609A4.54 4.54 0 0 1 15 3.277v5.855h-4.852a14.51 14.51 0 0 1 1.203-2.578zM15 11.132v4H9.021c.059-1.38.239-2.72.539-4H15zm-11.003 10a12.894 12.894 0 0 1-.959-4h3.983c.055 1.395.224 2.736.491 4H3.997zm5.024-4H15v4H9.561c-.3-1.28-.481-2.62-.54-4zm5.979 6v5.854a4.533 4.533 0 0 1-1.351-.668c-.831-.586-1.625-1.487-2.299-2.608a14.476 14.476 0 0 1-1.202-2.578H15zm5.649 2.578c-.674 1.121-1.468 2.022-2.299 2.609a4.594 4.594 0 0 1-1.351.668v-5.855h4.852a14.472 14.472 0 0 1-1.202 2.578zM17 21.132v-4h5.979a21.576 21.576 0 0 1-.539 4H17zm7.98-6a24.051 24.051 0 0 0-.492-4h3.516c.533 1.278.855 2.619.959 4H24.98zm1.978-6h-2.997c-.582-1.836-1.387-3.447-2.354-4.732a13.024 13.024 0 0 1 3.585 2.54 12.97 12.97 0 0 1 1.766 2.192zM6.808 6.94a13.024 13.024 0 0 1 3.585-2.54c-.967 1.285-1.771 2.896-2.354 4.732H5.042A12.97 12.97 0 0 1 6.808 6.94zM5.042 23.132h2.997c.583 1.836 1.387 3.447 2.354 4.732a13.024 13.024 0 0 1-3.585-2.54 12.97 12.97 0 0 1-1.766-2.192zm20.15 2.192a13.024 13.024 0 0 1-3.585 2.54c.967-1.285 1.771-2.896 2.354-4.732h2.997a12.97 12.97 0 0 1-1.766 2.192z"/></svg>
